client/src/assets/edit-avatar.svg

<svg width="21" height="18" viewBox="0 0 21 18" fill="none" xmlns="http://www.w3.org/2000/svg">
<path d="M19.0667 2.6H16.3181C15.9707 2.6 15.6444 2.4646 15.3986 2.21914L13.8142 0.634766C13.405 0.22555 12.8608 0 12.2819 0H8.51813C7.93922 0 7.39501 0.22555 6.9858 0.634766L5.40142 2.21914C5.15556 2.4646 4.8293 2.6 4.48187 2.6H1.73335C0.77736 2.6 0 3.37736 0 4.33331V15.6C0 16.5559 0.77736 17.3333 1.73335 17.3333H19.0667C20.0226 17.3333 20.8 16.556 20.8 15.6V4.33331C20.8 3.37736 20.0226 2.6 19.0667 2.6ZM10.4 14.7333C7.53257 14.7333 5.2 12.4007 5.2 9.53331C5.2 6.66587 7.53257 4.33331 10.4 4.33331C13.2674 4.33331 15.6 6.66587 15.6 9.53331C15.6 12.4007 13.2674 14.7333 10.4 14.7333ZM17.3334 6.93331C16.8556 6.93331 16.4667 6.54441 16.4667 6.06666C16.4667 5.58891 16.8556 5.2 17.3334 5.2C17.8111 5.2 18.2 5.58891 18.2 6.06666C18.2 6.54441 17.8111 6.93331 17.3334 6.93331Z" fill="#DADBDD"/>
</svg>

<svg width="21" height="18" fill="none" xmlns="http://www.w3.org/2000/svg"><path d="M19.067 2.6h-2.749c-.347 0-.674-.135-.92-.38L13.815.634A2.153 2.153 0 0012.282 0H8.518C7.94 0 7.395.226 6.986.635L5.4 2.219c-.245.246-.572.381-.92.381H1.734C.777 2.6 0 3.377 0 4.333V15.6c0 .956.777 1.733 1.733 1.733h17.334c.956 0 1.733-.777 1.733-1.733V4.333c0-.956-.777-1.733-1.733-1.733zM10.4 14.733a5.206 5.206 0 01-5.2-5.2c0-2.867 2.333-5.2 5.2-5.2s5.2 2.333 5.2 5.2c0 2.868-2.333 5.2-5.2 5.2zm6.933-7.8a.868.868 0 010-1.733.868.868 0 010 1.733z" fill="#DADBDD"/></svg>
